src/main/resources/icons/DatabaseIcons/icons/mongoField.svg

<svg xmlns="http://www.w3.org/2000/svg" width="16" height="16" viewBox="0 0 16 16">
  <g fill="none" fill-rule="evenodd">
    <path fill="#9AA7B0" d="M7.0844,14 C4.6688,13.5514019 3.9956,12.6542056 3.9956,11.2242991 C3.9956,11.0140187 4.0352,10.4953271 4.0352,10.2570093 C4.0352,9.1635514 3.6128,8.81308411 2.5832,8.81308411 L2,8.81308411 L2,7.18691589 L2.5832,7.18691589 C3.6128,7.18691589 4.0352,6.8364486 4.0352,5.74299065 C4.0352,5.5046729 3.9956,4.98598131 3.9956,4.77570093 C3.9956,3.34579439 4.6688,2.44859813 7.0844,2 L7.4408,3.41588785 C6.0416,3.8364486 5.8304,4.22897196 5.8304,5.08411215 C5.8304,5.36448598 5.87,5.8271028 5.87,6.12149533 C5.87,7.14485981 5.3816,7.69158879 4.4972,8 C5.3816,8.30841121 5.87,8.85514019 5.87,9.87850467 C5.87,10.1728972 5.8304,10.635514 5.8304,10.9158879 C5.8304,11.771028 6.0416,12.1635514 7.4408,12.5841121 L7.0844,14 Z"/>
    <path fill="#9AA7B0" d="M13.6444,14 C11.2288,13.5514019 10.5556,12.6542056 10.5556,11.2242991 C10.5556,11.0140187 10.5952,10.4953271 10.5952,10.2570093 C10.5952,9.1635514 10.1728,8.81308411 9.1432,8.81308411 L8.56,8.81308411 L8.56,7.18691589 L9.1432,7.18691589 C10.1728,7.18691589 10.5952,6.8364486 10.5952,5.74299065 C10.5952,5.5046729 10.5556,4.98598131 10.5556,4.77570093 C10.5556,3.34579439 11.2288,2.44859813 13.6444,2 L14.0008,3.41588785 C12.6016,3.8364486 12.3904,4.22897196 12.3904,5.08411215 C12.3904,5.36448598 12.43,5.8271028 12.43,6.12149533 C12.43,7.14485981 11.9416,7.69158879 11.0572,8 C11.9416,8.30841121 12.43,8.85514019 12.43,9.87850467 C12.43,10.1728972 12.3904,10.635514 12.3904,10.9158879 C12.3904,11.771028 12.6016,12.1635514 14.0008,12.5841121 L13.6444,14 Z" transform="matrix(-1 0 0 1 22.56 0)"/>
  </g>
</svg>

<svg xmlns="http://www.w3.org/2000/svg" width="16" height="16" viewBox="0 0 16 16"><rect id="frame" width="16" height="16" fill="none"/><g fill="#9AA7B0" fill-rule="evenodd"><path d="M7.084 14c-2.415-.449-3.088-1.346-3.088-2.776 0-.21.04-.729.04-.967 0-1.093-.423-1.444-1.453-1.444H2V7.187h.583c1.03 0 1.452-.35 1.452-1.444 0-.238-.04-.757-.04-.967 0-1.43.674-2.327 3.09-2.776l.356 1.416c-1.4.42-1.61.813-1.61 1.668 0 .28.039.743.039 1.037 0 1.024-.488 1.57-1.373 1.879.885.308 1.373.855 1.373 1.879 0 .294-.04.757-.04 1.037 0 .855.212 1.248 1.61 1.668L7.085 14z"/><path d="M8.916 14c2.415-.449 3.088-1.346 3.088-2.776 0-.21-.04-.729-.04-.967 0-1.093.423-1.444 1.453-1.444H14V7.187h-.583c-1.03 0-1.452-.35-1.452-1.444 0-.238.04-.757.04-.967 0-1.43-.674-2.327-3.09-2.776L8.56 3.416c1.4.42 1.61.813 1.61 1.668 0 .28-.039.743-.039 1.037 0 1.024.488 1.57 1.373 1.879-.885.308-1.373.855-1.373 1.879 0 .294.04.757.04 1.037 0 .855-.212 1.248-1.61 1.668L8.915 14z"/></g></svg>
